Flat Remix Dark/panel/indicator-keyboard-Gr.svg

<svg xmlns="http://www.w3.org/2000/svg" width="22" height="22" version="1.1">
 <defs>
  <style id="current-color-scheme" type="text/css">
   .ColorScheme-Text { color:#d3dae3; } .ColorScheme-Highlight { color:#5294e2; }
  </style>
 </defs>
 <rect style="opacity:0" width="22" height="22" x="0" y="0"/>
 <path style="fill:none;stroke:currentColor;stroke-width:1.99999976;stroke-linecap:round;stroke-linejoin:bevel" class="ColorScheme-Text" d="m 8.0240249,11.999735 1.9999971,0 m -0.9999984,0 -1.13e-5,2.000448 c 0,1 0,1 -1.0000025,0.999552 -0.407777,0 -1.7015092,4.48e-4 -1.9999974,4.48e-4 -1.0000024,0 -1.0000024,0 -1.0000024,-1 l 1.51e-5,-3.00045 -1.51e-5,-2.9995494 c 0,-1 0,-1 1.0000024,-1 0.2508095,0 1.6159785,-3.629e-4 1.9999974,-4.492e-4 1.0000025,4.492e-4 1.0000025,4.492e-4 1.0000025,1.0004492"/>
 <path style="fill:none;stroke:currentColor;stroke-width:1.99999976;stroke-linecap:round" class="ColorScheme-Text" d="m 18.00315,14.999822 -2.000001,-2.999999 m -2.000001,-1.000002 1.999982,-4e-6 c 0.423836,-1e-6 0.729048,4.55e-4 1.00001,4.55e-4 0.999999,0 0.999999,0 0.999999,-1.000001 0,-0.2567204 1.5e-5,-0.5997726 1.1e-5,-1.0004478 l -1.1e-5,-0.9995519 c 0,-1 0,-1 -0.999999,-1 -0.224504,0 -0.544112,0.00944 -0.874519,0.00719 -1.12549,-0.00765 -2.125473,-0.00756 -2.125473,-0.00756 M 14.003246,15 l 0,-8.0000004"/>
</svg>

<svg xmlns="http://www.w3.org/2000/svg" width="12pt" height="12pt" version="1.1" viewBox="0 0 12 12">
 <g>
  <path style="fill:none;stroke-width:2;stroke-linecap:round;stroke-linejoin:bevel;stroke:rgb(82.745098%,85.490196%,89.019608%)" d="M 8.023438 12 L 10.023438 12 M 9.023438 12 L 9.023438 14 C 9.023438 15 9.023438 15 8.023438 15 C 7.617188 15 6.320312 15 6.023438 15 C 5.023438 15 5.023438 15 5.023438 14 L 5.023438 8 C 5.023438 7 5.023438 7 6.023438 7 C 6.273438 7 7.640625 7 8.023438 7 C 9.023438 7 9.023438 7 9.023438 8" transform="matrix(0.5,0,0,0.5,0.5,0.5)"/>
  <path style="fill:none;stroke-width:2;stroke-linecap:round;stroke:rgb(82.745098%,85.490196%,89.019608%)" d="M 18 15 L 16 12 M 14 11 L 16 11 C 16.429688 11 16.734375 11 17 11 C 18 11 18 11 18 10 C 18 9.742188 18 9.398438 18 9 L 18 8 C 18 7 18 7 17 7 C 16.78125 7 16.460938 7.007812 16.125 7.007812 C 15 7 14 7 14 7 M 14 15 L 14 7" transform="matrix(0.5,0,0,0.5,0.5,0.5)"/>
 </g>
</svg>
